public/svg/Data analytics _Monochromatic.svg

<svg height="160" viewBox="0 0 174 160" width="174" xmlns="http://www.w3.org/2000/svg" xmlns:xlink="http://www.w3.org/1999/xlink"><linearGradient id="a"><stop offset=".01"/><stop offset=".08" stop-opacity=".69"/><stop offset=".21" stop-opacity=".32"/><stop offset="1" stop-opacity="0"/></linearGradient><linearGradient id="b" x1="14.27391%" x2="125.343753%" xlink:href="#a" y1="3.050224%" y2="170.815705%"/><linearGradient id="c" x1="49.561612%" x2="50.946195%" xlink:href="#a" y1="29.159733%" y2="89.366833%"/><linearGradient id="d" x1="-61.733356%" x2="431.959645%" xlink:href="#a" y1="-76.318977%" y2="481.822349%"/><linearGradient id="e" x1="29.611203%" x2="121.306106%" xlink:href="#a" y1="-107.188186%" y2="599.731511%"/><linearGradient id="f" x1="34.641646%" x2="94.731956%" xlink:href="#a" y1="-87.219648%" y2="449.610751%"/><linearGradient id="g" x1="-102.22321%" x2="857.558915%" xlink:href="#a" y1="-32.214318%" y2="486.1494%"/><linearGradient id="h" x1="-102.200978%" x2="857.558915%" xlink:href="#a" y1="-32.214318%" y2="486.1494%"/><linearGradient id="i" x1="-102.200978%" x2="857.558915%" xlink:href="#a" y1="-32.214318%" y2="486.127168%"/><g fill="none" transform="translate(.049235)"><path d="m28.8658422 155.985564c13.0631642 5.886756 28.8612401 5.263371 41.4215113-1.633579 3.8991436-2.142994 7.5141181-4.854113 11.6647082-6.454883 10.0595837-3.876728 21.3281773-.644106 32.0818223-1.345198 18.159262-1.182877 34.100284-13.918232 43.317694-29.649633s12.687717-34.1532002 14.687233-52.2883455c2.238908-20.2764118 1.395012-44.0634645-14.670011-56.58123903-12.842718-10.01042064-30.94859-9.01576784-46.894779-5.80904865-15.946188 3.20671919-32.3367133 8.13508568-48.1589005 4.39132304-5.7057697-1.34519884-11.2169266-3.80938208-17.0725309-4.09776232-10.4436425-.51804833-20.0812782 6.04389723-26.7911119 14.09091466-11.51315131 13.8008076-16.55069323 32.1069089-17.36703335 50.0780056-.81806237 18.0349894 2.36635302 36.1666812 2.84513478 54.1101482.41678125 15.719314 10.52975427 28.689517 24.93626307 35.189297z" fill="#4a67c6" opacity=".18"/><rect fill="#fff" height="113" rx="52" width="104" x="36.950765" y="23"/><path d="m52.4311393 137 14.8177652-13.468879s20.4210552 14.496601 39.9373295 1.589912c19.516275-12.90669 20.16113-38.219029 11.256184-47.9340595-8.904945-9.7150305-8.795815-2.8030576-8.795815-2.8030576s13.889174 38.1598511-16.2701766 41.9886581c-30.1593509 3.828807-33.0820301-4.702667-33.0820301-4.702667l-18.3436315 25.330093z" fill="url(#b)"/><path d="m36.9507648 59.4345238 16.982902 10.0416667 28.6292246-19.6785715 31.6575056 21.202381 26.730368-24.7638889v-8.2361111l-27.149699 23.5555556-30.9830157-17.6309524-29.2878906 15.8888889-16.5793949-5.75z" fill="url(#c)"/><path d="m14.8527858 67-1.902021-2.3938871 20.616725-16.396352 20.9616511 10.2302194 29.1117618-19.4173034 32.4171393 19.7643579 32.766007-31.7870348 2.126716 2.1947252-34.463044 33.4335716-32.7738911-19.9792951-28.9501393 19.3088489-20.8019995-10.1533152z" fill="#4a67c6"/><path d="m29.4058541 138.46263c-.931625.937419-1.4550893 2.209428-1.4550893 3.535841 0 1.326412.5234643 2.598421 1.4550893 3.535841.9306409.938411 2.1934517 1.465688 3.5102727 1.465688 1.3168211 0 2.5796318-.527277 3.5102728-1.465688l31.070895-29.998572c1.9379603-1.953088 1.9379603-5.118596 0-7.071683-1.938964-1.952076-5.0815814-1.952076-7.0205455 0z" fill="#4a67c6"/><path d="m49.9507648 90.001938c.0010861 18.777429 15.4477431 33.998776 34.501311 33.998062 19.0535682-.000714 34.4986892-15.223217 34.4986892-34.0006459 0-18.7774293-15.446432-33.9993541-34.5000002-33.9993541-9.1503096 0-17.9258176 3.5823986-24.3958792 9.9590546s-10.1041208 15.025187-10.1041208 24.0428834zm8.7154571 0c.0032592-14.0332692 11.5488341-25.4071789 25.788475-25.4050385 14.239641.0021404 25.7816951 11.3795205 25.7806091 25.41279s-11.5449 25.4089155-25.7845411 25.4089155c-6.8396679.000514-13.3992644-2.677326-18.2350868-7.444154-4.8358223-4.766829-7.5515417-11.231971-7.5494562-17.972513z" fill="#4a67c6"/><path d="m49.9507648 90.001938c.0010861 18.777429 15.4477431 33.998776 34.501311 33.998062 19.0535682-.000714 34.4986892-15.223217 34.4986892-34.0006459 0-18.7774293-15.446432-33.9993541-34.5000002-33.9993541-9.1503096 0-17.9258176 3.5823986-24.3958792 9.9590546s-10.1041208 15.025187-10.1041208 24.0428834zm8.7154571 0c.0032592-14.0332692 11.5488341-25.4071789 25.788475-25.4050385 14.239641.0021404 25.7816951 11.3795205 25.7806091 25.41279s-11.5449 25.4089155-25.7845411 25.4089155c-6.8396679.000514-13.3992644-2.677326-18.2350868-7.444154-4.8358223-4.766829-7.5515417-11.231971-7.5494562-17.972513z" fill="url(#d)"/><g fill="#4a67c6"><path d="m47.9507648 86.9975653c-.0007953 13.7518677 8.4044455 26.1500377 21.296202 31.4130117s27.7310815 2.354244 37.5981212-7.369795c9.86704-9.724039 12.818545-24.3483012 7.478174-37.0532206-5.34037-12.7049195-17.9208663-20.9883452-31.8749677-20.9875614-19.0524594 0-34.4975295 15.2212284-34.4975295 33.9975653zm8.7168006 0c-.0007954-10.2773472 6.2806652-19.54312 15.9151766-23.4764526 9.6345113-3.9333326 20.724585-1.7595667 28.098637 5.5076152 7.374053 7.2671819 9.579786 18.1965299 5.58861 27.6914107-3.991176 9.4948804-13.39321 15.6853054-23.8216947 15.6845214-14.2383034 0-25.7807289-11.375143-25.7807289-25.4070947z"/><path d="m149.619453 44-2.98484-.2032797 1.072767-15.2991701-17.280044 2.7433257-.476571-2.9086091 21-3.3322668z"/><path d="m68.950765 94h5v8h-5z"/><path d="m75.950765 84h5v17h-5z"/><path d="m82.950765 91h5v11h-5z"/><path d="m90.950765 81h5v21h-5z"/></g><path d="m75.950765 84h5v17h-5z" fill="url(#e)"/><path d="m90.950765 81h5v21h-5z" fill="url(#f)"/><path d="m97.950765 75h5v27h-5z" fill="#4a67c6"/><circle cx="83.450765" cy="42.5" fill="#4a67c6" r="4.5"/><circle cx="83.450765" cy="42.5" fill="url(#g)" r="4.5"/><circle cx="115.450765" cy="59.5" fill="#4a67c6" r="4.5"/><circle cx="115.450765" cy="59.5" fill="url(#h)" r="4.5"/><circle cx="33.450765" cy="50.5" fill="#4a67c6" r="4.5"/><circle cx="33.450765" cy="50.5" fill="url(#h)" r="4.5"/><circle cx="53.450765" cy="60.5" fill="#4a67c6" r="4.5"/><circle cx="53.450765" cy="60.5" fill="url(#i)" r="4.5"/></g></svg>

<?xml version="1.0" encoding="UTF-8"?>
<svg width="174px" height="160px" viewBox="0 0 174 160" version="1.1" xmlns="http://www.w3.org/2000/svg" xmlns:xlink="http://www.w3.org/1999/xlink">
    <title>Data analytics _Monochromatic</title>
    <defs>
        <linearGradient x1="14.2739097%" y1="3.05022355%" x2="125.343753%" y2="170.815705%" id="linearGradient-1">
            <stop stop-color="#000000" offset="1%"></stop>
            <stop stop-color="#000000" stop-opacity="0.69" offset="8%"></stop>
            <stop stop-color="#000000" stop-opacity="0.32" offset="21%"></stop>
            <stop stop-color="#000000" stop-opacity="0" offset="100%"></stop>
        </linearGradient>
        <linearGradient x1="49.5616121%" y1="29.1597325%" x2="50.9461952%" y2="89.3668331%" id="linearGradient-2">
            <stop stop-color="#000000" offset="1%"></stop>
            <stop stop-color="#000000" stop-opacity="0.69" offset="8%"></stop>
            <stop stop-color="#000000" stop-opacity="0.32" offset="21%"></stop>
            <stop stop-color="#000000" stop-opacity="0" offset="100%"></stop>
        </linearGradient>
        <linearGradient x1="-61.7333562%" y1="-76.3189774%" x2="431.959645%" y2="481.822349%" id="linearGradient-3">
            <stop stop-color="#000000" offset="1%"></stop>
            <stop stop-color="#000000" stop-opacity="0.69" offset="8%"></stop>
            <stop stop-color="#000000" stop-opacity="0.32" offset="21%"></stop>
            <stop stop-color="#000000" stop-opacity="0" offset="100%"></stop>
        </linearGradient>
        <linearGradient x1="29.6112031%" y1="-107.188186%" x2="121.306106%" y2="599.731511%" id="linearGradient-4">
            <stop stop-color="#000000" offset="1%"></stop>
            <stop stop-color="#000000" stop-opacity="0.69" offset="8%"></stop>
            <stop stop-color="#000000" stop-opacity="0.32" offset="21%"></stop>
            <stop stop-color="#000000" stop-opacity="0" offset="100%"></stop>
        </linearGradient>
        <linearGradient x1="34.6416456%" y1="-87.2196478%" x2="94.7319558%" y2="449.610751%" id="linearGradient-5">
            <stop stop-color="#000000" offset="1%"></stop>
            <stop stop-color="#000000" stop-opacity="0.69" offset="8%"></stop>
            <stop stop-color="#000000" stop-opacity="0.32" offset="21%"></stop>
            <stop stop-color="#000000" stop-opacity="0" offset="100%"></stop>
        </linearGradient>
        <linearGradient x1="-102.22321%" y1="-32.2143175%" x2="857.558915%" y2="486.1494%" id="linearGradient-6">
            <stop stop-color="#000000" offset="1%"></stop>
            <stop stop-color="#000000" stop-opacity="0.69" offset="8%"></stop>
            <stop stop-color="#000000" stop-opacity="0.32" offset="21%"></stop>
            <stop stop-color="#000000" stop-opacity="0" offset="100%"></stop>
        </linearGradient>
        <linearGradient x1="-102.200978%" y1="-32.2143175%" x2="857.558915%" y2="486.1494%" id="linearGradient-7">
            <stop stop-color="#000000" offset="1%"></stop>
            <stop stop-color="#000000" stop-opacity="0.69" offset="8%"></stop>
            <stop stop-color="#000000" stop-opacity="0.32" offset="21%"></stop>
            <stop stop-color="#000000" stop-opacity="0" offset="100%"></stop>
        </linearGradient>
        <linearGradient x1="-102.200978%" y1="-32.2143175%" x2="857.558915%" y2="486.127168%" id="linearGradient-8">
            <stop stop-color="#000000" offset="1%"></stop>
            <stop stop-color="#000000" stop-opacity="0.69" offset="8%"></stop>
            <stop stop-color="#000000" stop-opacity="0.32" offset="21%"></stop>
            <stop stop-color="#000000" stop-opacity="0" offset="100%"></stop>
        </linearGradient>
    </defs>
    <g id="Page-1" stroke="none" stroke-width="1" fill="none" fill-rule="evenodd">
        <g id="About-desktop" transform="translate(-875.000000, -660.000000)" fill-rule="nonzero">
            <g id="Data-analytics-_Monochromatic" transform="translate(875.049235, 660.000000)">
                <path d="M28.8658422,155.985564 C41.9290064,161.87232 57.7270823,161.248935 70.2873535,154.351985 C74.1864971,152.208991 77.8014716,149.497872 81.9520617,147.897102 C92.0116454,144.020374 103.280239,147.252996 114.033884,146.551904 C132.193146,145.369027 148.134168,132.633672 157.351578,116.902271 C166.568988,101.17087 170.039295,82.7490708 172.038811,64.6139255 C174.277719,44.3375137 173.433823,20.550461 157.3688,8.03268647 C144.526082,-1.97773417 126.42021,-0.983081366 110.474021,2.22363782 C94.527833,5.43035701 78.1373077,10.3587235 62.3151205,6.61496086 C56.6093508,5.26976202 51.0981939,2.80557878 45.2425896,2.51719854 C34.7989471,1.99915021 25.1613114,8.56109577 18.4514777,16.6081132 C6.93832639,30.4089208 1.90078447,48.7150221 1.08444435,66.6861188 C0.266381984,84.7211082 3.45079737,102.8528 3.92957913,120.796267 C4.34636038,136.515581 14.4593334,149.485784 28.8658422,155.985564 Z" id="Path" fill="#4A67C6" opacity="0.18"></path>
                <rect id="Rectangle" fill="#FFFFFF" x="36.9507648" y="23" width="104" height="113" rx="52"></rect>
                <path d="M52.4311393,137 L67.2489045,123.531121 C67.2489045,123.531121 87.6699597,138.027722 107.186234,125.121033 C126.702509,112.214343 127.347364,86.902004 118.442418,77.1869735 C109.537473,67.471943 109.646603,74.3839159 109.646603,74.3839159 C109.646603,74.3839159 123.535777,112.543767 93.3764264,116.372574 C63.2170755,120.201381 60.2943963,111.669907 60.2943963,111.669907 L41.9507648,137 L52.4311393,137 Z" id="Path" fill="url(#linearGradient-1)"></path>
                <polygon id="Path" fill="url(#linearGradient-2)" points="36.9507648 59.4345238 53.9336668 69.4761905 82.5628914 49.797619 114.220397 71 140.950765 46.2361111 140.950765 38 113.801066 61.5555556 82.8180503 43.9246032 53.5301597 59.8134921 36.9507648 54.0634921"></polygon>
                <polygon id="Path" fill="#4A67C6" points="14.8527858 67 12.9507648 64.6061129 33.5674898 48.2097609 54.5291409 58.4399803 83.6409027 39.0226769 116.058042 58.7870348 148.824049 27 150.950765 29.1947252 116.487721 62.6282968 83.7138299 42.6490017 54.7636906 61.9578506 33.9616911 51.8045354"></polygon>
                <path d="M29.4058541,138.46263 C28.4742291,139.400049 27.9507648,140.672058 27.9507648,141.998471 C27.9507648,143.324883 28.4742291,144.596892 29.4058541,145.534312 L29.4058541,145.534312 C30.336495,146.472723 31.5993058,147 32.9161268,147 C34.2329479,147 35.4957586,146.472723 36.4263996,145.534312 L67.4972946,115.53574 C69.4352549,113.582652 69.4352549,110.417144 67.4972946,108.464057 L67.4972946,108.464057 C65.5583306,106.511981 62.4157132,106.511981 60.4767491,108.464057 L29.4058541,138.46263 Z" id="Path" fill="#4A67C6"></path>
                <path d="M49.9507648,90.001938 C49.9518509,108.779367 65.3985079,124.000714 84.4520758,124 C103.505644,123.999286 118.950765,108.776783 118.950765,89.9993541 C118.950765,71.2219248 103.504333,56 84.4507648,56 C75.3004552,56 66.5249472,59.5823986 60.0548856,65.9590546 C53.584824,72.3357106 49.9507648,80.9842416 49.9507648,90.001938 L49.9507648,90.001938 Z M58.6662219,90.001938 C58.6694811,75.9686688 70.215056,64.5947591 84.4546969,64.5968995 C98.6943379,64.5990399 110.236392,75.97642 110.235306,90.0096895 C110.23422,104.042959 98.690406,115.418605 84.4507649,115.418605 C77.611097,115.419119 71.0515005,112.741279 66.2156781,107.974451 C61.3798558,103.207622 58.6641364,96.74248 58.6662219,90.001938 L58.6662219,90.001938 Z" id="Shape" fill="#4A67C6"></path>
                <path d="M49.9507648,90.001938 C49.9518509,108.779367 65.3985079,124.000714 84.4520758,124 C103.505644,123.999286 118.950765,108.776783 118.950765,89.9993541 C118.950765,71.2219248 103.504333,56 84.4507648,56 C75.3004552,56 66.5249472,59.5823986 60.0548856,65.9590546 C53.584824,72.3357106 49.9507648,80.9842416 49.9507648,90.001938 L49.9507648,90.001938 Z M58.6662219,90.001938 C58.6694811,75.9686688 70.215056,64.5947591 84.4546969,64.5968995 C98.6943379,64.5990399 110.236392,75.97642 110.235306,90.0096895 C110.23422,104.042959 98.690406,115.418605 84.4507649,115.418605 C77.611097,115.419119 71.0515005,112.741279 66.2156781,107.974451 C61.3798558,103.207622 58.6641364,96.74248 58.6662219,90.001938 L58.6662219,90.001938 Z" id="Shape" fill="url(#linearGradient-3)"></path>
                <path d="M47.9507648,86.9975653 C47.9499695,100.749433 56.3552103,113.147603 69.2469668,118.410577 C82.1387233,123.673551 96.9780483,120.764821 106.845088,111.040782 C116.712128,101.316743 119.663633,86.6924808 114.323262,73.9875614 C108.982892,61.2826419 96.4023957,52.9992162 82.4482943,53 C63.3958349,53 47.9507648,68.2212284 47.9507648,86.9975653 Z M56.6675654,86.9975653 C56.66677,76.7202181 62.9482306,67.4544453 72.582742,63.5211127 C82.2172533,59.5877801 93.307327,61.761546 100.681379,69.0287279 C108.055432,76.2959098 110.261165,87.2252578 106.269989,96.7201386 C102.278813,106.215019 92.876779,112.405444 82.4482943,112.40466 C68.2099909,112.40466 56.6675654,101.029517 56.6675654,86.9975653 Z" id="Shape" fill="#4A67C6"></path>
                <polygon id="Path" fill="#4A67C6" points="149.619453 44 146.634613 43.7967203 147.70738 28.4975502 130.427336 31.2408759 129.950765 28.3322668 150.950765 25"></polygon>
                <rect id="Rectangle" fill="#4A67C6" x="68.9507648" y="94" width="5" height="8"></rect>
                <rect id="Rectangle" fill="#4A67C6" x="75.9507648" y="84" width="5" height="17"></rect>
                <rect id="Rectangle" fill="#4A67C6" x="82.9507648" y="91" width="5" height="11"></rect>
                <rect id="Rectangle" fill="#4A67C6" x="90.9507648" y="81" width="5" height="21"></rect>
                <rect id="Rectangle" fill="url(#linearGradient-4)" x="75.9507648" y="84" width="5" height="17"></rect>
                <rect id="Rectangle" fill="url(#linearGradient-5)" x="90.9507648" y="81" width="5" height="21"></rect>
                <rect id="Rectangle" fill="#4A67C6" x="97.9507648" y="75" width="5" height="27"></rect>
                <circle id="Oval" fill="#4A67C6" cx="83.4507648" cy="42.5" r="4.5"></circle>
                <circle id="Oval" fill="url(#linearGradient-6)" cx="83.4507648" cy="42.5" r="4.5"></circle>
                <circle id="Oval" fill="#4A67C6" cx="115.450765" cy="59.5" r="4.5"></circle>
                <circle id="Oval" fill="url(#linearGradient-7)" cx="115.450765" cy="59.5" r="4.5"></circle>
                <circle id="Oval" fill="#4A67C6" cx="33.4507648" cy="50.5" r="4.5"></circle>
                <circle id="Oval" fill="url(#linearGradient-7)" cx="33.4507648" cy="50.5" r="4.5"></circle>
                <circle id="Oval" fill="#4A67C6" cx="53.4507648" cy="60.5" r="4.5"></circle>
                <circle id="Oval" fill="url(#linearGradient-8)" cx="53.4507648" cy="60.5" r="4.5"></circle>
            </g>
        </g>
    </g>
</svg>
